X:466
T:Mary My Bright Pet
N:"Spirited" "collected by F.O'Neill"
N:Irish title: peata.d geal a .maire
B:O'Neill's 466
Z:Transcribed by henrik.norbeck@mailbox.swipnet.se
M:6/8
L:1/8
K:Am
A/B/|cde ede|cAF G2 E|EAB ~cBc|Add d2 B|
dcBA GFG|Ade ~fed|eaa ged|cAA A2||
c/B/|A2 G AEF|GAF GEF|EFG ABc/d/|ege dcB|
A2 B dcBA|G2 A Bcd|efg/a/ ged|cAA A2||
